X:1
T:Poirt An Dhroim
M:6/8
L:1/8
C:Pat Simmonds
R:jig
N:An Droim is a small baile on Letter Mullen in Conamara where I spent many an evening playing
K:Bm
Bcd efg|faf bag|fed cde|dcB ABc|Bcd efg|faf bag|fed cde|dBA B3:||
 dBA ~B3|FBd fdB|cBA ~A3|EAc edc|dBA ~B3|FBd fdB|fgf edc| dBA ~B3:||